polaris-icons/icons/new-icons/BuyButtonMajor.svg

<svg width="20" height="20" viewBox="0 0 20 20" fill="none" xmlns="http://www.w3.org/2000/svg">
<path d="M5.75 2.5C4.7835 2.5 4 3.2835 4 4.25V7.75C4 8.7165 4.7835 9.5 5.75 9.5C6.16421 9.5 6.5 9.16421 6.5 8.75C6.5 8.33579 6.16421 8 5.75 8C5.61193 8 5.5 7.88807 5.5 7.75V4.25C5.5 4.11193 5.61193 4 5.75 4H14.25C14.3881 4 14.5 4.11193 14.5 4.25V7.75C14.5 7.88807 14.3881 8 14.25 8H13.75C13.3358 8 13 8.33579 13 8.75C13 9.16421 13.3358 9.5 13.75 9.5H14.25C15.2165 9.5 16 8.7165 16 7.75V4.25C16 3.2835 15.2165 2.5 14.25 2.5H5.75Z" fill="#4A4A4A"/>
<path fill-rule="evenodd" clip-rule="evenodd" d="M9.75002 5C8.50738 5 7.50002 6.00736 7.50002 7.25V10.8299L6.92941 10.5724C5.9177 10.1157 4.74189 10.7042 4.50109 11.7878L4.43167 12.1002C4.2771 12.7957 4.46113 13.5234 4.9278 14.0618L7.3842 16.8961C7.7166 17.2797 8.19912 17.5 8.70665 17.5H13.1725C14.0128 17.5 14.7344 16.9028 14.8916 16.0774L15.5627 12.554C15.7344 11.6528 15.181 10.772 14.2946 10.5357L12 9.92379V7.25C12 6.00736 10.9927 5 9.75002 5ZM9.00002 7.25C9.00002 6.83579 9.33581 6.5 9.75002 6.5C10.1642 6.5 10.5 6.83579 10.5 7.25V10.5C10.5 10.8398 10.7285 11.1371 11.0568 11.2247L13.9081 11.985C14.0347 12.0188 14.1138 12.1446 14.0892 12.2734L13.4181 15.7968C13.3956 15.9147 13.2926 16 13.1725 16H8.70665C8.63415 16 8.56521 15.9685 8.51773 15.9137L6.06133 13.0794C5.90577 12.9 5.84443 12.6574 5.89595 12.4255L5.96537 12.1132C5.99977 11.9584 6.16774 11.8743 6.31227 11.9395L7.94145 12.6749C8.17355 12.7797 8.44296 12.7596 8.65688 12.6214C8.87081 12.4833 9.00002 12.246 9.00002 11.9914V7.25Z" fill="#4A4A4A"/>
</svg>

<svg viewBox="0 0 20 20" xmlns="http://www.w3.org/2000/svg"><path d="M5.75 2.5a1.75 1.75 0 0 0-1.75 1.75v3.5c0 .966.784 1.75 1.75 1.75a.75.75 0 0 0 0-1.5.25.25 0 0 1-.25-.25v-3.5a.25.25 0 0 1 .25-.25h8.5a.25.25 0 0 1 .25.25v3.5a.25.25 0 0 1-.25.25h-.5a.75.75 0 0 0 0 1.5h.5a1.75 1.75 0 0 0 1.75-1.75v-3.5a1.75 1.75 0 0 0-1.75-1.75h-8.5Z" fill="#5C5F62"/><path fill-rule="evenodd" d="M9.75 5a2.25 2.25 0 0 0-2.25 2.25v3.58l-.57-.258a1.75 1.75 0 0 0-2.429 1.216l-.07.312a2.25 2.25 0 0 0 .497 1.962l2.456 2.834a1.75 1.75 0 0 0 1.323.604h4.465a1.75 1.75 0 0 0 1.72-1.423l.67-3.523a1.75 1.75 0 0 0-1.267-2.018l-2.295-.612v-2.674a2.25 2.25 0 0 0-2.25-2.25Zm-.75 2.25a.75.75 0 0 1 1.5 0v3.25c0 .34.229.637.557.725l2.851.76a.25.25 0 0 1 .181.288l-.67 3.524a.25.25 0 0 1-.247.203h-4.465a.25.25 0 0 1-.19-.086l-2.456-2.835a.75.75 0 0 1-.165-.654l.07-.312a.25.25 0 0 1 .346-.173l1.63.735a.75.75 0 0 0 1.058-.684v-4.741Z" fill="#5C5F62"/></svg>
